Newaita-dark/.places-mint/32/folder-temp.svg

<?xml version="1.0" encoding="UTF-8"?>
<svg xmlns="http://www.w3.org/2000/svg" xmlns:xlink="http://www.w3.org/1999/xlink" width="32px" height="32px" viewBox="0 0 32 32" version="1.1">
<defs>
<linearGradient id="linear0" gradientUnits="userSpaceOnUse" x1="254" y1="233.5" x2="254" y2="254.666672" gradientTransform="matrix(0.062506,0,0,0.062506,-0.00000381506,13.438787)">
<stop offset="0" style="stop-color:rgb(0%,0%,0%);stop-opacity:0.27451;"/>
<stop offset="1" style="stop-color:rgb(0%,0%,0%);stop-opacity:0;"/>
</linearGradient>
<radialGradient id="radial0" gradientUnits="userSpaceOnUse" cx="450.908936" cy="189.579361" fx="450.908936" fy="189.579361" r="21.166656" gradientTransform="matrix(0.00000017417,-0.0781325,-0.140638,-0.000000101539,54.115213,63.595334)">
<stop offset="0" style="stop-color:rgb(0%,0%,0%);stop-opacity:0.313726;"/>
<stop offset="0.222222" style="stop-color:rgb(0%,0%,0%);stop-opacity:0.27451;"/>
<stop offset="1" style="stop-color:rgb(0%,0%,0%);stop-opacity:0;"/>
</radialGradient>
<radialGradient id="radial1" gradientUnits="userSpaceOnUse" cx="450.908936" cy="189.579361" fx="450.908936" fy="189.579361" r="21.166656" gradientTransform="matrix(-0.00000017417,0.0781325,0.140638,0.000000101539,-22.362178,-7.527477)">
<stop offset="0" style="stop-color:rgb(0%,0%,0%);stop-opacity:0.313726;"/>
<stop offset="0.222222" style="stop-color:rgb(0%,0%,0%);stop-opacity:0.27451;"/>
<stop offset="1" style="stop-color:rgb(0%,0%,0%);stop-opacity:0;"/>
</radialGradient>
<radialGradient id="radial2" gradientUnits="userSpaceOnUse" cx="450.908936" cy="189.579361" fx="450.908936" fy="189.579361" r="21.166656" gradientTransform="matrix(-0.00000017417,-0.0781325,0.140638,-0.000000101539,-22.362178,63.595334)">
<stop offset="0" style="stop-color:rgb(0%,0%,0%);stop-opacity:0.313726;"/>
<stop offset="0.222222" style="stop-color:rgb(0%,0%,0%);stop-opacity:0.27451;"/>
<stop offset="1" style="stop-color:rgb(0%,0%,0%);stop-opacity:0;"/>
</radialGradient>
<radialGradient id="radial3" gradientUnits="userSpaceOnUse" cx="450.908936" cy="189.579361" fx="450.908936" fy="189.579361" r="21.166656" gradientTransform="matrix(0.00000017417,0.0781325,-0.140638,0.000000101539,54.115211,-7.527477)">
<stop offset="0" style="stop-color:rgb(0%,0%,0%);stop-opacity:0.313726;"/>
<stop offset="0.222222" style="stop-color:rgb(0%,0%,0%);stop-opacity:0.27451;"/>
<stop offset="1" style="stop-color:rgb(0%,0%,0%);stop-opacity:0;"/>
</radialGradient>
<linearGradient id="linear1" gradientUnits="userSpaceOnUse" x1="254" y1="-147.5" x2="254" y2="-31.083334" gradientTransform="matrix(0.062506,0,0,0.062506,0.00000124975,13.438781)">
<stop offset="0" style="stop-color:rgb(64.313728%,64.313728%,64.313728%);stop-opacity:0;"/>
<stop offset="1" style="stop-color:rgb(100%,100%,100%);stop-opacity:0.196078;"/>
</linearGradient>
<linearGradient id="linear2" gradientUnits="userSpaceOnUse" x1="254" y1="233.5" x2="254" y2="-105.166656" gradientTransform="matrix(0.062506,0,0,0.062506,-0.00000181239,13.438783)">
<stop offset="0" style="stop-color:rgb(34.509805%,34.509805%,34.509805%);stop-opacity:0;"/>
<stop offset="1" style="stop-color:rgb(98.039216%,98.039216%,98.039216%);stop-opacity:0.196078;"/>
</linearGradient>
</defs>
<g id="surface1">
<path style=" stroke:none;fill-rule:nonzero;fill:url(#linear0);" d="M 3.96875 28.035156 L 27.785156 28.035156 L 27.785156 29.355469 L 3.96875 29.355469 Z M 3.96875 28.035156 "/>
<path style=" stroke:none;fill-rule:nonzero;fill:url(#radial0);" d="M 27.785156 28.035156 L 30.429688 28.035156 L 30.429688 26.710938 L 27.785156 26.710938 Z M 27.785156 28.035156 "/>
<path style=" stroke:none;fill-rule:nonzero;fill:url(#radial1);" d="M 3.96875 28.035156 L 1.324219 28.035156 L 1.324219 29.355469 L 3.96875 29.355469 Z M 3.96875 28.035156 "/>
<path style=" stroke:none;fill-rule:nonzero;fill:url(#radial2);" d="M 3.96875 28.035156 L 1.324219 28.035156 L 1.324219 26.710938 L 3.96875 26.710938 Z M 3.96875 28.035156 "/>
<path style=" stroke:none;fill-rule:nonzero;fill:url(#radial3);" d="M 27.785156 28.035156 L 30.429688 28.035156 L 30.429688 29.355469 L 27.785156 29.355469 Z M 27.785156 28.035156 "/>
<path style=" stroke:none;fill-rule:nonzero;fill:rgb(61.176473%,80.000001%,39.607844%);fill-opacity:1;" d="M 7.277344 4.21875 L 28.777344 4.21875 C 29.507812 4.21875 30.097656 4.8125 30.097656 5.542969 L 30.097656 10.503906 C 30.097656 11.234375 29.507812 11.828125 28.777344 11.828125 L 7.277344 11.828125 C 6.546875 11.828125 5.953125 11.234375 5.953125 10.503906 L 5.953125 5.542969 C 5.953125 4.8125 6.546875 4.21875 7.277344 4.21875 Z M 7.277344 4.21875 "/>
<path style=" stroke:none;fill-rule:nonzero;fill:url(#linear1);" d="M 7.277344 4.21875 L 28.777344 4.21875 C 29.507812 4.21875 30.097656 4.8125 30.097656 5.542969 L 30.097656 10.503906 C 30.097656 11.234375 29.507812 11.828125 28.777344 11.828125 L 7.277344 11.828125 C 6.546875 11.828125 5.953125 11.234375 5.953125 10.503906 L 5.953125 5.542969 C 5.953125 4.8125 6.546875 4.21875 7.277344 4.21875 Z M 7.277344 4.21875 "/>
<path style=" stroke:none;fill-rule:nonzero;fill:rgb(100%,100%,100%);fill-opacity:0.392157;" d="M 7.277344 4.300781 C 6.542969 4.300781 5.953125 4.894531 5.953125 5.625 L 5.953125 5.792969 C 5.953125 5.058594 6.542969 4.46875 7.277344 4.46875 L 28.777344 4.46875 C 29.507812 4.46875 30.097656 5.058594 30.097656 5.792969 L 30.097656 5.625 C 30.097656 4.894531 29.507812 4.300781 28.777344 4.300781 Z M 7.277344 4.300781 "/>
<path style=" stroke:none;fill-rule:nonzero;fill:rgb(12.941177%,12.941177%,12.941177%);fill-opacity:1;" d="M 7.277344 4.125 C 6.492188 4.125 5.859375 4.757812 5.859375 5.542969 L 5.859375 10.503906 C 5.859375 11.285156 6.492188 11.921875 7.277344 11.921875 L 28.777344 11.921875 C 29.558594 11.921875 30.191406 11.285156 30.191406 10.503906 L 30.191406 5.542969 C 30.191406 4.757812 29.558594 4.125 28.777344 4.125 Z M 7.277344 4.3125 L 28.777344 4.3125 C 29.457031 4.3125 30.003906 4.859375 30.003906 5.542969 L 30.003906 10.503906 C 30.003906 11.1875 29.457031 11.734375 28.777344 11.734375 L 7.277344 11.734375 C 6.59375 11.734375 6.046875 11.1875 6.046875 10.503906 L 6.046875 5.542969 C 6.046875 4.859375 6.59375 4.3125 7.277344 4.3125 Z M 7.277344 4.3125 "/>
<path style=" stroke:none;fill-rule:nonzero;fill:rgb(68.235296%,83.529413%,50.588238%);fill-opacity:1;" d="M 2.644531 6.863281 C 1.914062 6.863281 1.324219 7.457031 1.324219 8.1875 L 1.324219 26.710938 C 1.324219 27.445312 1.914062 28.035156 2.644531 28.035156 L 29.105469 28.035156 C 29.839844 28.035156 30.429688 27.445312 30.429688 26.710938 L 30.429688 10.171875 L 12.570312 10.171875 C 11.835938 10.171875 11.246094 9.582031 11.246094 8.851562 L 11.246094 6.863281 Z M 2.644531 6.863281 "/>
<path style=" stroke:none;fill-rule:nonzero;fill:url(#linear2);" d="M 2.644531 6.863281 C 1.914062 6.863281 1.324219 7.457031 1.324219 8.1875 L 1.324219 26.710938 C 1.324219 27.445312 1.914062 28.035156 2.644531 28.035156 L 29.105469 28.035156 C 29.839844 28.035156 30.429688 27.445312 30.429688 26.710938 L 30.429688 10.171875 L 12.570312 10.171875 C 11.835938 10.171875 11.246094 9.582031 11.246094 8.851562 L 11.246094 6.863281 Z M 2.644531 6.863281 "/>
<path style=" stroke:none;fill-rule:nonzero;fill:rgb(0%,0%,0%);fill-opacity:0.196078;" d="M 2.644531 28.035156 C 1.914062 28.035156 1.324219 27.445312 1.324219 26.710938 L 1.324219 26.546875 C 1.324219 27.277344 1.914062 27.867188 2.644531 27.867188 L 29.105469 27.867188 C 29.839844 27.867188 30.429688 27.277344 30.429688 26.546875 L 30.429688 26.710938 C 30.429688 27.445312 29.839844 28.035156 29.105469 28.035156 Z M 2.644531 28.035156 "/>
<path style=" stroke:none;fill-rule:nonzero;fill:rgb(100%,100%,100%);fill-opacity:0.392157;" d="M 2.644531 6.949219 C 1.914062 6.949219 1.324219 7.539062 1.324219 8.273438 L 1.324219 8.4375 C 1.324219 7.703125 1.914062 7.113281 2.644531 7.113281 L 11.246094 7.113281 L 11.246094 6.949219 Z M 2.644531 6.949219 "/>
<path style=" stroke:none;fill-rule:nonzero;fill:rgb(100%,100%,100%);fill-opacity:0.392157;" d="M 12.484375 10.339844 C 11.753906 10.339844 11.164062 9.75 11.164062 9.015625 L 11.164062 8.851562 C 11.164062 9.582031 11.753906 10.175781 12.484375 10.171875 L 30.429688 10.171875 L 30.429688 10.339844 Z M 12.484375 10.339844 "/>
<path style=" stroke:none;fill-rule:nonzero;fill:rgb(12.941177%,12.941177%,12.941177%);fill-opacity:1;" d="M 2.644531 6.769531 C 1.863281 6.769531 1.230469 7.40625 1.230469 8.1875 L 1.230469 26.710938 C 1.230469 27.496094 1.863281 28.128906 2.644531 28.128906 L 29.105469 28.128906 C 29.890625 28.128906 30.523438 27.496094 30.523438 26.710938 L 30.523438 9.984375 L 12.570312 9.984375 C 11.886719 9.984375 11.339844 9.4375 11.339844 8.757812 L 11.339844 6.769531 Z M 2.644531 6.960938 L 11.152344 6.960938 L 11.152344 8.757812 C 11.152344 9.539062 11.785156 10.171875 12.570312 10.171875 L 30.335938 10.171875 L 30.335938 26.710938 C 30.335938 27.394531 29.789062 27.941406 29.105469 27.941406 L 2.644531 27.941406 C 1.964844 27.941406 1.417969 27.394531 1.417969 26.710938 L 1.417969 8.1875 C 1.417969 7.503906 1.964844 6.960938 2.644531 6.960938 Z M 2.644531 6.960938 "/>
<path style=" stroke:none;fill-rule:nonzero;fill:rgb(54.509807%,76.47059%,29.019609%);fill-opacity:1;" d="M 12.570312 12.792969 C 12.191406 12.792969 11.882812 13.101562 11.882812 13.480469 C 11.882812 14.855469 12.863281 15.984375 13.738281 16.859375 C 14.121094 17.242188 14.492188 17.5625 14.800781 17.816406 C 14.488281 18.105469 14.101562 18.488281 13.703125 18.941406 C 12.832031 19.945312 11.882812 21.257812 11.882812 22.742188 C 11.882812 23.121094 12.191406 23.429688 12.570312 23.429688 L 19.183594 23.429688 C 19.5625 23.429688 19.871094 23.121094 19.871094 22.742188 C 19.871094 21.257812 18.921875 19.945312 18.046875 18.941406 C 17.652344 18.488281 17.265625 18.105469 16.949219 17.816406 C 17.261719 17.5625 17.632812 17.242188 18.015625 16.859375 C 18.890625 15.984375 19.871094 14.855469 19.871094 13.480469 C 19.871094 13.101562 19.5625 12.792969 19.183594 12.792969 Z M 12.570312 12.792969 "/>
<path style=" stroke:none;fill-rule:nonzero;fill:rgb(100%,100%,100%);fill-opacity:0.392157;" d="M 11.890625 13.601562 C 11.886719 13.636719 11.882812 13.671875 11.882812 13.710938 C 11.882812 15.082031 12.863281 16.210938 13.738281 17.089844 C 14.046875 17.398438 14.347656 17.664062 14.617188 17.890625 C 14.679688 17.828125 14.742188 17.769531 14.800781 17.710938 C 14.492188 17.460938 14.121094 17.140625 13.738281 16.757812 C 12.910156 15.929688 11.988281 14.875 11.890625 13.601562 Z M 19.863281 13.601562 C 19.765625 14.875 18.84375 15.929688 18.015625 16.757812 C 17.632812 17.140625 17.261719 17.460938 16.949219 17.710938 C 17.011719 17.769531 17.074219 17.828125 17.136719 17.890625 C 17.40625 17.664062 17.707031 17.398438 18.015625 17.089844 C 18.890625 16.210938 19.871094 15.082031 19.871094 13.710938 C 19.871094 13.671875 19.867188 13.636719 19.863281 13.601562 Z M 11.890625 22.742188 C 11.886719 22.816406 11.882812 22.894531 11.882812 22.96875 C 11.882812 23.347656 12.191406 23.65625 12.570312 23.65625 L 19.183594 23.65625 C 19.5625 23.65625 19.871094 23.347656 19.871094 22.96875 C 19.871094 22.894531 19.867188 22.816406 19.863281 22.742188 C 19.8125 23.070312 19.527344 23.324219 19.183594 23.324219 L 12.570312 23.324219 C 12.226562 23.324219 11.941406 23.070312 11.890625 22.742188 Z M 11.890625 22.742188 "/>
<path style=" stroke:none;fill-rule:nonzero;fill:rgb(0%,0%,0%);fill-opacity:0.235294;" d="M 12.570312 12.792969 C 12.191406 12.792969 11.882812 13.101562 11.882812 13.480469 C 11.882812 13.53125 11.882812 13.582031 11.886719 13.632812 C 11.925781 13.292969 12.214844 13.023438 12.570312 13.023438 L 19.183594 13.023438 C 19.539062 13.023438 19.828125 13.292969 19.867188 13.632812 C 19.867188 13.582031 19.871094 13.53125 19.871094 13.480469 C 19.871094 13.101562 19.5625 12.792969 19.183594 12.792969 Z M 14.671875 17.9375 C 14.382812 18.210938 14.046875 18.546875 13.703125 18.941406 C 12.832031 19.945312 11.882812 21.257812 11.882812 22.742188 C 11.882812 22.765625 11.882812 22.789062 11.886719 22.8125 C 11.949219 21.394531 12.863281 20.140625 13.703125 19.171875 C 14.101562 18.71875 14.488281 18.335938 14.800781 18.046875 C 14.761719 18.011719 14.714844 17.976562 14.671875 17.9375 Z M 17.082031 17.9375 C 17.035156 17.976562 16.992188 18.011719 16.949219 18.046875 C 17.265625 18.335938 17.652344 18.71875 18.046875 19.171875 C 18.890625 20.140625 19.800781 21.394531 19.867188 22.8125 C 19.867188 22.789062 19.871094 22.765625 19.871094 22.742188 C 19.871094 21.257812 18.921875 19.945312 18.046875 18.941406 C 17.703125 18.546875 17.371094 18.210938 17.082031 17.9375 Z M 17.082031 17.9375 "/>
<path style="fill:none;stroke-width:3;stroke-linecap:round;stroke-linejoin:round;stroke:rgb(12.941177%,12.941177%,12.941177%);stroke-opacity:1;stroke-miterlimit:4;" d="M 201.105795 -10.332045 C 195.043874 -10.332045 190.106846 -5.395016 190.106846 0.666905 C 190.106846 22.664804 205.792848 40.725579 219.791511 54.724243 C 225.915926 60.848658 231.852859 65.973168 236.789888 70.03528 C 231.790365 74.659839 225.603456 80.784254 219.229065 88.033562 C 205.292896 104.094528 190.106846 125.092523 190.106846 148.840255 C 190.106846 154.902176 195.043874 159.839205 201.105795 159.839205 L 306.908192 159.839205 C 312.970113 159.839205 317.907141 154.902176 317.907141 148.840255 C 317.907141 125.092523 302.721092 104.094528 288.722428 88.033562 C 282.410531 80.784254 276.223622 74.659839 271.161605 70.03528 C 276.161128 65.973168 282.098061 60.848658 288.222476 54.724243 C 302.221139 40.725579 317.907141 22.664804 317.907141 0.666905 C 317.907141 -5.395016 312.970113 -10.332045 306.908192 -10.332045 Z M 201.105795 -10.332045 " transform="matrix(0.062506,0,0,0.062506,0,13.438783)"/>
</g>
</svg>

<svg xmlns="http://www.w3.org/2000/svg" width="32" height="32"><defs><linearGradient id="a" gradientUnits="userSpaceOnUse" x1="254" y1="233.5" x2="254" y2="254.667" gradientTransform="matrix(.0625 0 0 .0625 0 13.439)"><stop offset="0" stop-opacity=".275"/><stop offset="1" stop-opacity="0"/></linearGradient><radialGradient id="b" gradientUnits="userSpaceOnUse" cx="450.909" cy="189.579" fx="450.909" fy="189.579" r="21.167" gradientTransform="matrix(0 -.07813 -.14064 0 54.115 63.595)"><stop offset="0" stop-opacity=".314"/><stop offset=".222" stop-opacity=".275"/><stop offset="1" stop-opacity="0"/></radialGradient><radialGradient id="c" gradientUnits="userSpaceOnUse" cx="450.909" cy="189.579" fx="450.909" fy="189.579" r="21.167" gradientTransform="matrix(0 .07813 .14064 0 -22.362 -7.527)"><stop offset="0" stop-opacity=".314"/><stop offset=".222" stop-opacity=".275"/><stop offset="1" stop-opacity="0"/></radialGradient><radialGradient id="d" gradientUnits="userSpaceOnUse" cx="450.909" cy="189.579" fx="450.909" fy="189.579" r="21.167" gradientTransform="matrix(0 -.07813 .14064 0 -22.362 63.595)"><stop offset="0" stop-opacity=".314"/><stop offset=".222" stop-opacity=".275"/><stop offset="1" stop-opacity="0"/></radialGradient><radialGradient id="e" gradientUnits="userSpaceOnUse" cx="450.909" cy="189.579" fx="450.909" fy="189.579" r="21.167" gradientTransform="matrix(0 .07813 -.14064 0 54.115 -7.527)"><stop offset="0" stop-opacity=".314"/><stop offset=".222" stop-opacity=".275"/><stop offset="1" stop-opacity="0"/></radialGradient><linearGradient id="f" gradientUnits="userSpaceOnUse" x1="254" y1="-147.5" x2="254" y2="-31.083" gradientTransform="matrix(.0625 0 0 .0625 0 13.439)"><stop offset="0" stop-color="#a4a4a4" stop-opacity="0"/><stop offset="1" stop-color="#fff" stop-opacity=".196"/></linearGradient><linearGradient id="g" gradientUnits="userSpaceOnUse" x1="254" y1="233.5" x2="254" y2="-105.167" gradientTransform="matrix(.0625 0 0 .0625 0 13.439)"><stop offset="0" stop-color="#585858" stop-opacity="0"/><stop offset="1" stop-color="#fafafa" stop-opacity=".196"/></linearGradient><linearGradient id="h" gradientUnits="userSpaceOnUse" x1="254" y1="-147.5" x2="254" y2="233.5" gradientTransform="matrix(.0625 0 0 .0625 0 13.439)"><stop offset="0" stop-color="#a4a4a4" stop-opacity="0"/><stop offset="1" stop-color="#fff" stop-opacity=".196"/></linearGradient></defs><path d="M3.969 28.035h23.816v1.32H3.97zm0 0" fill="url(#a)"/><path d="M27.785 28.035h2.645v-1.324h-2.645zm0 0" fill="url(#b)"/><path d="M3.969 28.035H1.324v1.32H3.97zm0 0" fill="url(#c)"/><path d="M3.969 28.035H1.324v-1.324H3.97zm0 0" fill="url(#d)"/><path d="M27.785 28.035h2.645v1.32h-2.645zm0 0" fill="url(#e)"/><path d="M7.277 4.219h21.5c.73 0 1.32.593 1.32 1.324v4.96c0 .731-.59 1.325-1.32 1.325h-21.5c-.73 0-1.324-.594-1.324-1.324V5.543c0-.73.594-1.324 1.324-1.324zm0 0" fill="#7cb342"/><path d="M7.277 4.219h21.5c.73 0 1.32.593 1.32 1.324v4.96c0 .731-.59 1.325-1.32 1.325h-21.5c-.73 0-1.324-.594-1.324-1.324V5.543c0-.73.594-1.324 1.324-1.324zm0 0" fill="url(#f)"/><path d="M7.277 4.219a1.32 1.32 0 0 0-1.324 1.324v.164c0-.734.59-1.324 1.324-1.324h21.5c.73 0 1.32.59 1.32 1.324v-.164a1.32 1.32 0 0 0-1.32-1.324zm0 0" fill="#e6e6e6" fill-opacity=".588"/><path d="M7.277 4.125c-.785 0-1.418.633-1.418 1.418v4.96c0 .782.633 1.419 1.418 1.419h21.5c.782 0 1.414-.637 1.414-1.418V5.543c0-.785-.632-1.418-1.414-1.418zm0 .188h21.5c.68 0 1.227.546 1.227 1.23v4.96c0 .684-.547 1.231-1.227 1.231h-21.5c-.683 0-1.23-.546-1.23-1.23V5.543c0-.684.547-1.23 1.23-1.23zm0 0" fill="#212121"/><path d="M2.645 6.863c-.73 0-1.32.594-1.32 1.324v18.524c0 .734.59 1.324 1.32 1.324h26.46a1.32 1.32 0 0 0 1.325-1.324V10.17H12.57a1.32 1.32 0 0 1-1.324-1.32V6.864zm0 0" fill="#9ccc65"/><path d="M2.645 6.863c-.73 0-1.32.594-1.32 1.324v18.524c0 .734.59 1.324 1.32 1.324h26.46a1.32 1.32 0 0 0 1.325-1.324V10.17H12.57a1.32 1.32 0 0 1-1.324-1.32V6.864zm0 0" fill="url(#g)"/><path d="M2.645 28.035c-.73 0-1.32-.59-1.32-1.324v-.164c0 .73.59 1.32 1.32 1.32h26.46a1.32 1.32 0 0 0 1.325-1.32v.164a1.32 1.32 0 0 1-1.325 1.324zm0 0" fill-opacity=".196"/><path d="M2.645 6.863c-.73 0-1.32.594-1.32 1.324v.168c0-.734.59-1.324 1.32-1.324h8.601v-.168zm0 0M12.484 10.254c-.73 0-1.32-.59-1.32-1.32v-.168c0 .734.59 1.324 1.32 1.324H30.43v.164zm0 0" fill="#e6e6e6" fill-opacity=".937"/><path d="M2.645 6.77c-.782 0-1.415.636-1.415 1.418V26.71c0 .785.633 1.418 1.415 1.418h26.46c.786 0 1.418-.633 1.418-1.418V9.984H12.57c-.683 0-1.23-.546-1.23-1.226V6.77zm0 .19h8.507v1.798c0 .781.633 1.414 1.418 1.414h17.766V26.71c0 .684-.547 1.23-1.23 1.23H2.644c-.68 0-1.227-.546-1.227-1.23V8.188c0-.684.547-1.227 1.227-1.227zm0 0" fill="#212121"/><path d="M11.906 12.82a.657.657 0 0 0-.66.66l3.969 4.63-3.969 4.632c0 .367.293.66.66.66h7.938c.367 0 .902-.382.664-.66l-3.969-4.633 3.969-4.629c.238-.277-.297-.66-.664-.66zm0 0" fill="#7cb342"/><path d="M11.906 12.82a.657.657 0 0 0-.66.66l3.969 4.63-3.969 4.632c0 .367.293.66.66.66h7.938c.367 0 .902-.382.664-.66l-3.969-4.633 3.969-4.629c.238-.277-.297-.66-.664-.66zm0 0" fill="url(#h)"/><path d="M11.906 12.727a.754.754 0 0 0-.754.753v.036l3.938 4.593-3.938 4.598v.035c0 .418.34.754.754.754h7.938a.983.983 0 0 0 .62-.25.536.536 0 0 0 .18-.258.326.326 0 0 0-.066-.308l-3.918-4.57 3.918-4.567a.328.328 0 0 0 .067-.309.536.536 0 0 0-.18-.257.983.983 0 0 0-.621-.25zm0 .187h7.938c.152 0 .367.086.496.203a.354.354 0 0 1 .125.168c.015.05.012.086-.027.133l-4.024 4.691 4.023 4.692c.04.05.043.086.028.137a.395.395 0 0 1-.125.167.838.838 0 0 1-.496.204h-7.938a.563.563 0 0 1-.562-.54l3.996-4.66-3.996-4.656a.56.56 0 0 1 .562-.539zm0 0" fill="#212121"/></svg>
